X:37
T:The Pigtown                                                                                       
M:C                                                                                                 
L:1/8                                                                                               
K:G                                                                                                 
G2 ge d2 ed|B2 ge dBAB|G2 ge d2 ed|BGAG EFGA|                                                       
G2 ge d2 ed|B2 ge dBAB|G2 ge d2 ed| BGAF G2 z2 ||                                                   
B2 e2 efge|fedf edBA|B2 e2 efge|fgaf g2 ed|                                                         
B2 e2 efge|fedf edBA|B2 e2 efge|fgaf gedB |>|
